X:1
T:Title
%%score [ 1 2 3 4 ]
L:1/8
Q:1/4=120
M:4/4
K:G
V:1 treble nm="S."
V:2 treble nm="A."
V:3 treble-8 nm="T."
V:4 bass nm="B."
V:1
 B2 B2 A3 d |"^Never weather-beaten sail" c2 c2 B3 e | d2 G2 A2 A2 | %3
w: Ne- ver wea- ther-|beat- en sail more|will- ing bent to|
w: Ne- ver tir- ed|pil- grim's limbs af-|fec- ted slum- ber|
"^Thomas Campion""^(1567-1620)" G8 :| d2 (AB) c2 (GA) | B2 (FG) A3 A | (BA) (Bc) d3 e | %7
w: shore,|Than my * wea- ry *|sprite now * longs to|fly * out * of my|
w: more,||||
 (dc) (Bc) A4 | E3 E F2 D2 | G3 G A2 F2 | B3 B c2 A2 | (dc) (BA) G2 (EF) | (GA) (Bc) A3 G | G8 |] %14
w: trou * bled * breast.|O come quick- ly,|O come quick- ly,|O come quick- ly,|sweet * est * Lord, and *|take * my * soul to|rest.|
w: |||||||
 B2 B2 A3 d | c2 c2 B3 e | d2 G2 A2 A2 | G8 :| d2 (AB) c2 (GA) | B2 (FG) A3 A | (BA) (Bc) d3 e | %21
w: Ev- er bloom- ing|are the joys of|Heav'n's high Pa- ra-|dise:|Glo- ry * there the *|sun out * shines, whose|beams * the * bless- ed|
w: Cold age deafs not|there our ears, nor|va- pour dims our|eyes;||||
 (dc) (Bc) A4 | E3 E F2 D2 | G3 G A2 F2 | B3 B c2 A2 | (dc) (BA) G2 (EF) | (GA) (Bc) A3 G | G8 |] %28
w: on * ly * see.|O come quick- ly,|O come quick- ly,|O come quick- ly,|glor * ious * Lord, and *|raise * my * sprite to|Thee.|
w: |||||||
V:2
 G2 G2 F3 F | G2 A2 D3 E | F2 G2 G2 F2 | G8 :| B2 A2 G2 G2 | F2 A2 (AG) (FE) | D2 G2 F2 G2 | %7
w: Ne- ver wea- ther-|beat- en sail more|will- ing bent to|shore,|Than my wea- ry|sprite now longs * to *|fly out of my|
w: Ne- ver tir- ed|pil- grim's limbs af-|fec- ted slum- ber|more,||||
 A2 (DE) F4 | G3 C D3 A, | D3 E F2 D2 | D2 G2 E2 (FE) | D2 (G=F) E2 (CB,/A,/) | G,2 G2 G2 F2 | %13
w: trou- bled * breast.|O come quick- ly,|O come quick- ly,|O come quick- ly, *|sweet- est * Lord, and * *|take my soul to|
w: ||||||
 G8 |] G2 G2 F3 F | G2 A2 D3 E | F2 G2 G2 F2 | G8 :| B2 A2 G2 G2 | F2 A2 (AG) (FE) | D2 G2 F2 G2 | %21
w: rest.|Ev- er bloom- ing|are the joys of|Heav'n's high Pa- ra-|dise:|Glo- ry there the|sun out- shines, * whose *|beams the bless- ed|
w: |Cold age deafs not|there our ears, nor|va- pour dims our|eyes;||||
 A2 (DE) F4 | G3 C D3 A, | D3 E F2 D2 | D2 G2 E2 (FE) | D2 (G=F) E2 (CB,/A,/) | G,2 G2 G2 F2 | %27
w: on- ly * see.|O come quick- ly,|O come quick- ly,|O come quick- ly, *|glor- ious * Lord, and * *|raise my sprite to|
w: ||||||
 G8 |] %28
w: Thee.|
w: |
V:3
 d2 d2 d3 A | c2 A2 B3 c | A2 G2 d2 d2 | B8 :| (Bc) d2 (GA) (Bc) | d2 (AB) ^c2 d2 | B2 e2 A2 B2 | %7
w: Ne- ver wea- ther-|beat- en sail more|will- ing bent to|shore,|Than * my wea * ry *|sprite now * longs to|fly out of my|
w: Ne- ver tir- ed|pil- grim's limbs af-|fec- ted slum- ber|more,||||
 A2 G2 A4 | c2 c2 A2 F2 | G2 B2 d3 A | B2 G2 A2 A2 | B2 B2 c2 c2 | c2 B2 d2 d2 | d8 |] d2 d2 d3 A | %15
w: trou- bled breast.|O come quick- ly,|O come quick- ly,|O come quick- ly,|sweet- est Lord, and|take my soul to|rest.|Ev- er bloom- ing|
w: |||||||Cold age deafs not|
 c2 A2 B3 c | A2 G2 d2 d2 | B8 :| (Bc) d2 (GA) (Bc) | d2 (AB) ^c2 d2 | B2 e2 A2 B2 | A2 G2 A4 | %22
w: are the joys of|Heav'n's high Pa- ra-|dise:|Glo * ry there * the *|sun out * shines, whose|beams the bless- ed|on- ly see.|
w: there our ears, nor|va- pour dims our|eyes;|||||
 c2 c2 A2 F2 | G2 B2 d3 A | B2 G2 A2 A2 | B2 B2 c2 c2 | c2 B2 d2 d2 | d8 |] %28
w: O come quick- ly,|O come quick- ly,|O come quick- ly,|glor- ious Lord, and|raise my sprite to|Thee.|
w: ||||||
V:4
 G,2 G,2 D,3 D, | E,2 F,2 G,3 C, | D,2 E,2 D,2 D,2 | G,,8 :| G,2 F,2 E,2 E,2 | D,2 D,2 A,,2 D,2 | %6
w: Ne- ver wea- ther-|beat- en sail more|will- ing bent to|shore,|Than my wea- ry|sprite now longs to|
w: Ne- ver tir- ed|pil- grim's limbs af-|fec- ted slum- ber|more,|||
 G,2 E,2 D,2 G,2 | F,2 G,2 D,4 | C,2 A,,2 D,3 C, | B,,2 G,,2 D,3 D, | G,2 E,2 A,,2 (D,C,) | %11
w: fly out of my|trou- bled breast.|O come quick- ly,|O come quick- ly,|O come quick- ly, *|
w: |||||
"^This edition  Andrew Sims 2000" (B,,A,,) G,,2 C,3 D, | (E,F,) G,2 D,2 D,2 | G,,8 |] %14
w: sweet * est Lord, and|take * my soul to|rest.|
w: |||
 G,2 G,2 D,3 D, | E,2 F,2 G,3 C, | D,2 E,2 D,2 D,2 | G,,8 :| G,2 F,2 E,2 E,2 | D,2 D,2 A,,2 D,2 | %20
w: Ev- er bloom- ing|are the joys of|Heav'n's high Pa- ra-|dise:|Glo- ry there the|sun out- shines, whose|
w: Cold age deafs not|there our ears, nor|va- pour dims our|eyes;|||
 G,2 E,2 D,2 G,2 | F,2 G,2 D,4 | C,2 A,,2 D,3 C, | B,,2 G,,2 D,3 D, | G,2 E,2 A,,2 (D,C,) | %25
w: beams the bless- ed|on- ly see.|O come quick- ly,|O come quick- ly,|O come quick- ly, *|
w: |||||
 (B,,A,,) G,,2 C,3 D, | (E,F,) G,2 D,2 D,2 | G,,8 |] %28
w: glor * ious Lord, and|raise * my sprite to|Thee.|
w: |||

